assets/svg/icons/print.svg

<svg xmlns="http://www.w3.org/2000/svg" viewBox="0 0 24 24"><rect x="0" fill="none" width="24" height="24"/><g><path d="M9 16h6v2H9v-2zm13 1h-3v3c0 1.105-.895 2-2 2H7c-1.105 0-2-.895-2-2v-3H2V9c0-1.105.895-2 2-2h1V5c0-1.105.895-2 2-2h10c1.105 0 2 .895 2 2v2h1c1.105 0 2 .895 2 2v8zM7 7h10V5H7v2zm10 7H7v6h10v-6zm3-3.5c0-.828-.672-1.5-1.5-1.5s-1.5.672-1.5 1.5.672 1.5 1.5 1.5 1.5-.672 1.5-1.5z"/></g></svg>

<?xml version="1.0" encoding="utf-8"?>
<!-- Generator: Adobe Illustrator 19.2.1, SVG Export Plug-In . SVG Version: 6.00 Build 0)  -->
<svg version="1.1" id="Layer_1" xmlns="http://www.w3.org/2000/svg" xmlns:xlink="http://www.w3.org/1999/xlink" x="0px" y="0px"
	 viewBox="0 0 24 24" style="enable-background:new 0 0 24 24;" xml:space="preserve">
<g>
	<path d="M9,16h6v2H9V16z M22,17h-3v3c0,1.1-0.9,2-2,2H7c-1.1,0-2-0.9-2-2v-3H2V9c0-1.1,0.9-2,2-2h1V5c0-1.1,0.9-2,2-2h10
		c1.1,0,2,0.9,2,2v2h1c1.1,0,2,0.9,2,2V17z M7,7h10V5H7V7z M17,14H7v6h10V14z M20,10.5C20,9.7,19.3,9,18.5,9S17,9.7,17,10.5
		s0.7,1.5,1.5,1.5S20,11.3,20,10.5z"/>
</g>
</svg>
